assets/icons/24px/outline/circle-square-24px.svg

<svg width="24" height="24" viewBox="0 0 24 24" fill="none" xmlns="http://www.w3.org/2000/svg">
<circle cx="12" cy="12" r="9" stroke="white" stroke-width="2"/>
<path d="M9.38886 15.1629L8.83329 15.9944L8.83329 15.9944L9.38886 15.1629ZM15.1629 14.6111L14.3315 14.0556L15.1629 14.6111ZM14.6111 15.1629L14.0556 14.3315L14.6111 15.1629ZM15.1629 9.38886L14.3315 9.94443L15.1629 9.38886ZM12 14.5C11.277 14.5 10.8099 14.4988 10.4581 14.463C10.123 14.4289 10.005 14.3719 9.94443 14.3315L8.83329 15.9944C9.27721 16.291 9.76248 16.4026 10.2557 16.4527C10.7322 16.5012 11.3186 16.5 12 16.5V14.5ZM7.5 12C7.5 12.6814 7.49879 13.2678 7.54727 13.7443C7.59744 14.2375 7.70897 14.7228 8.00559 15.1667L9.66853 14.0556C9.62809 13.995 9.57109 13.877 9.537 13.5419C9.50121 13.1901 9.5 12.723 9.5 12H7.5ZM9.94443 14.3315C9.83524 14.2585 9.74149 14.1648 9.66853 14.0556L8.00559 15.1667C8.22447 15.4943 8.50572 15.7755 8.83329 15.9944L9.94443 14.3315ZM14.5 12C14.5 12.723 14.4988 13.1901 14.463 13.5419C14.4289 13.877 14.3719 13.995 14.3315 14.0556L15.9944 15.1667C16.291 14.7228 16.4026 14.2375 16.4527 13.7443C16.5012 13.2678 16.5 12.6814 16.5 12H14.5ZM12 16.5C12.6814 16.5 13.2678 16.5012 13.7443 16.4527C14.2375 16.4026 14.7228 16.291 15.1667 15.9944L14.0556 14.3315C13.995 14.3719 13.877 14.4289 13.5419 14.463C13.1901 14.4988 12.723 14.5 12 14.5V16.5ZM14.3315 14.0556C14.2585 14.1648 14.1648 14.2585 14.0556 14.3315L15.1667 15.9944C15.4943 15.7755 15.7755 15.4943 15.9944 15.1667L14.3315 14.0556ZM16.5 12C16.5 11.3186 16.5012 10.7322 16.4527 10.2557C16.4026 9.76248 16.291 9.27721 15.9944 8.83329L14.3315 9.94443C14.3719 10.005 14.4289 10.123 14.463 10.4581C14.4988 10.8099 14.5 11.277 14.5 12H16.5ZM12 9.5C12.723 9.5 13.1901 9.50121 13.5419 9.537C13.877 9.57109 13.995 9.62809 14.0556 9.66853L15.1667 8.00559C14.7228 7.70897 14.2375 7.59744 13.7443 7.54727C13.2678 7.49879 12.6814 7.5 12 7.5V9.5ZM15.9944 8.83329C15.7755 8.50572 15.4943 8.22447 15.1667 8.00559L14.0556 9.66853C14.1648 9.74149 14.2585 9.83524 14.3315 9.94443L15.9944 8.83329ZM9.5 12C9.5 11.277 9.50121 10.8099 9.537 10.4581C9.57109 10.123 9.62809 10.005 9.66853 9.94443L8.00559 8.83329C7.70897 9.27721 7.59744 9.76248 7.54727 10.2557C7.49879 10.7322 7.5 11.3186 7.5 12H9.5ZM12 7.5C11.3186 7.5 10.7322 7.49879 10.2557 7.54727C9.76248 7.59744 9.27721 7.70897 8.83329 8.00559L9.94443 9.66853C10.005 9.62809 10.123 9.57109 10.4581 9.537C10.8099 9.50121 11.277 9.5 12 9.5V7.5ZM9.66853 9.94443C9.74149 9.83524 9.83524 9.74149 9.94443 9.66853L8.83329 8.00559C8.50572 8.22447 8.22447 8.50572 8.00559 8.83329L9.66853 9.94443Z" fill="white"/>
</svg>

<svg width="24" height="24" fill="none" xmlns="http://www.w3.org/2000/svg"><circle cx="12" cy="12" r="9" stroke="#fff" stroke-width="2"/><path d="M9.389 15.163l-.556.831.556-.831zm5.774-.552l-.832-.555.832.555zm-.552.552l-.555-.832.555.832zm.552-5.774l-.832.555.832-.555zM12 14.5c-.723 0-1.19-.001-1.542-.037-.335-.034-.453-.091-.514-.131l-1.11 1.662c.443.297.928.409 1.422.459.476.048 1.063.047 1.744.047v-2zM7.5 12c0 .681-.001 1.268.047 1.744.05.494.162.979.459 1.423l1.663-1.111c-.04-.061-.098-.179-.132-.514C9.501 13.19 9.5 12.723 9.5 12h-2zm2.444 2.332a1 1 0 0 1-.275-.276l-1.663 1.11a3 3 0 0 0 .827.828l1.111-1.662zM14.5 12c0 .723-.001 1.19-.037 1.542-.034.335-.091.453-.131.514l1.662 1.11c.297-.443.409-.928.459-1.422.048-.476.047-1.063.047-1.744h-2zM12 16.5c.681 0 1.268.001 1.744-.047.494-.05.979-.162 1.423-.459l-1.111-1.662c-.061.04-.179.097-.514.131-.352.036-.819.037-1.542.037v2zm2.332-2.444a1 1 0 0 1-.276.276l1.11 1.662a3 3 0 0 0 .828-.827l-1.662-1.111zM16.5 12c0-.681.001-1.268-.047-1.744-.05-.494-.162-.979-.459-1.423l-1.662 1.111c.04.061.097.179.131.514.036.352.037.819.037 1.542h2zM12 9.5c.723 0 1.19.001 1.542.037.335.034.453.091.514.132l1.11-1.663c-.443-.297-.928-.409-1.422-.459C13.268 7.5 12.681 7.5 12 7.5v2zm3.994-.667a3 3 0 0 0-.827-.827l-1.111 1.663a1 1 0 0 1 .276.275l1.662-1.11zM9.5 12c0-.723.001-1.19.037-1.542.034-.335.091-.453.132-.514l-1.663-1.11c-.297.443-.409.928-.459 1.422C7.5 10.732 7.5 11.319 7.5 12h2zM12 7.5c-.681 0-1.268-.001-1.744.047-.494.05-.979.162-1.423.459l1.111 1.663c.061-.04.179-.098.514-.132.352-.036.819-.037 1.542-.037v-2zM9.669 9.944a1 1 0 0 1 .275-.275l-1.11-1.663a3 3 0 0 0-.828.827l1.663 1.111z" fill="#fff"/></svg>
